src/icons/twitter.svg

<svg width="16" height="16" viewBox="0 0 16 16" fill="none" xmlns="http://www.w3.org/2000/svg">
<path d="M15 3.78418C14.8086 4.07129 14.5921 4.33902 14.3506 4.5874C14.109 4.83577 13.847 5.0625 13.5644 5.26757C13.569 5.33138 13.5724 5.39404 13.5747 5.45556C13.577 5.51709 13.5781 5.57975 13.5781 5.64355C13.5781 6.21777 13.5166 6.78515 13.3935 7.3457C13.2705 7.90624 13.0928 8.44856 12.8603 8.97265C12.5231 9.73372 12.1016 10.4139 11.5957 11.0132C11.0898 11.6125 10.5168 12.1195 9.87646 12.5342C9.23616 12.9489 8.53775 13.2656 7.78125 13.4844C7.02474 13.7031 6.23177 13.8125 5.40234 13.8125C4.61848 13.8125 3.854 13.7043 3.10888 13.4878C2.36377 13.2713 1.6608 12.9489 1 12.5205C1.22331 12.5478 1.45117 12.5615 1.68359 12.5615C2.33529 12.5615 2.96533 12.4567 3.57373 12.2471C4.18212 12.0374 4.74153 11.7321 5.25195 11.331C4.94661 11.3265 4.65266 11.2752 4.37011 11.1772C4.08756 11.0793 3.82893 10.9425 3.59423 10.7671C3.35953 10.5916 3.15445 10.3831 2.979 10.1416C2.80354 9.90006 2.66796 9.63346 2.57226 9.34179C2.6634 9.35546 2.75341 9.36686 2.84228 9.37597C2.93115 9.38509 3.02115 9.38964 3.1123 9.38964C3.36751 9.38964 3.61815 9.35547 3.86425 9.28711C3.52701 9.21875 3.21826 9.09798 2.93798 8.9248C2.65771 8.75162 2.41503 8.54085 2.20996 8.29248C2.00488 8.04411 1.84537 7.76383 1.73144 7.45166C1.61751 7.13948 1.56054 6.8125 1.56054 6.4707V6.43652C1.96158 6.66439 2.3968 6.78515 2.8662 6.79883C2.66568 6.66211 2.48681 6.50602 2.32959 6.33056C2.17236 6.15511 2.03906 5.96484 1.92968 5.75976C1.82031 5.55469 1.736 5.33822 1.67675 5.11035C1.61751 4.88249 1.58789 4.64779 1.58789 4.40625C1.58789 4.15104 1.61979 3.90153 1.68359 3.65772C1.74739 3.4139 1.84537 3.18262 1.97753 2.96387C2.34212 3.41504 2.74772 3.8195 3.19433 4.17725C3.64094 4.53499 4.11604 4.84147 4.61962 5.09668C5.1232 5.35189 5.65071 5.55355 6.20214 5.70166C6.75357 5.84977 7.31868 5.9375 7.89745 5.96484C7.87011 5.86003 7.85074 5.75179 7.83934 5.64014C7.82795 5.52848 7.82225 5.41797 7.82225 5.30859C7.82225 4.91211 7.89745 4.53955 8.04784 4.19092C8.19823 3.84228 8.40331 3.53809 8.66307 3.27832C8.92284 3.01855 9.22704 2.81348 9.57567 2.66309C9.92431 2.5127 10.2969 2.4375 10.6933 2.4375C11.0944 2.4375 11.4761 2.51611 11.8384 2.67334C12.2007 2.83057 12.5185 3.05501 12.792 3.34668C13.1155 3.28288 13.4289 3.19287 13.7319 3.07666C14.035 2.96045 14.3278 2.81803 14.6103 2.64941C14.5055 2.9821 14.3449 3.28516 14.1284 3.55859C13.9119 3.83203 13.6533 4.05762 13.3525 4.23535C13.9267 4.16699 14.4759 4.0166 15 3.78418Z" fill="#C8C8C8"/>
</svg>

<svg width="16" height="16" xmlns="http://www.w3.org/2000/svg"><path d="M15 3.784a5.63 5.63 0 0 1-.65.803 6.058 6.058 0 0 1-.786.68 5.442 5.442 0 0 1 .014.377c0 .574-.061 1.141-.184 1.702a8.467 8.467 0 0 1-.534 1.627 8.444 8.444 0 0 1-1.264 2.04 7.768 7.768 0 0 1-1.72 1.521 7.835 7.835 0 0 1-2.095.95 8.524 8.524 0 0 1-2.379.329 8.178 8.178 0 0 1-2.293-.325A7.921 7.921 0 0 1 1 12.52a5.762 5.762 0 0 0 4.252-1.19 2.842 2.842 0 0 1-2.273-1.19 2.878 2.878 0 0 1-.407-.8c.091.014.181.026.27.035a2.797 2.797 0 0 0 1.022-.089 2.808 2.808 0 0 1-.926-.362 2.942 2.942 0 0 1-.728-.633 2.839 2.839 0 0 1-.65-1.822v-.033c.402.227.837.348 1.306.362a2.943 2.943 0 0 1-.936-1.04 2.955 2.955 0 0 1-.253-.649 2.945 2.945 0 0 1 .007-1.453c.063-.243.161-.474.294-.693.364.451.77.856 1.216 1.213a8.215 8.215 0 0 0 3.008 1.525 7.965 7.965 0 0 0 1.695.263 2.15 2.15 0 0 1-.058-.325 3.265 3.265 0 0 1-.017-.331c0-.397.075-.77.226-1.118a2.892 2.892 0 0 1 1.528-1.528 2.79 2.79 0 0 1 1.117-.225 2.846 2.846 0 0 1 2.099.909 5.7 5.7 0 0 0 1.818-.698 2.815 2.815 0 0 1-1.258 1.586A5.704 5.704 0 0 0 15 3.785z"/></svg>
